svgs/thin/loveseat.svg

<svg xmlns="http://www.w3.org/2000/svg" viewBox="0 0 512 512"><!-- Font Awesome Pro 6.0.0-alpha2 by @fontawesome - https://fontawesome.com License - https://fontawesome.com/license (Commercial License) --><path d="M72 192C76.418 192 80 188.418 80 184V160C80 98.145 130.145 48 192 48H320C381.855 48 432 98.145 432 160V184C432 188.418 435.582 192 440 192S448 188.418 448 184V160C448 89.305 390.695 32 320 32H192C121.305 32 64 89.305 64 160V184C64 188.418 67.582 192 72 192ZM448 224C412.652 224 384 252.652 384 288H128C128 252.652 99.348 224 64 224S0 252.652 0 288V448C0 465.672 14.328 480 32 480H96C113.672 480 128 465.672 128 448V432H384V448C384 465.672 398.328 480 416 480H480C497.672 480 512 465.672 512 448V288C512 252.652 483.348 224 448 224ZM112 448C112 456.824 104.824 464 96 464H32C23.176 464 16 456.824 16 448V288C16 261.531 37.531 240 64 240S112 261.531 112 288V448ZM384 416H128V304H384V416ZM496 448C496 456.824 488.824 464 480 464H416C407.176 464 400 456.824 400 448V288C400 261.531 421.531 240 448 240S496 261.531 496 288V448Z"/></svg>

<svg xmlns="http://www.w3.org/2000/svg" viewBox="0 0 512 512"><!--! Font Awesome Pro 6.3.0 by @fontawesome - https://fontawesome.com License - https://fontawesome.com/license (Commercial License) Copyright 2023 Fonticons, Inc. --><path d="M72 192C76.42 192 80 188.4 80 184V160c0-61.86 50.14-112 112-112h128c61.86 0 112 50.14 112 112v24C432 188.4 435.6 192 440 192S448 188.4 448 184V160c0-70.7-57.3-128-128-128H192C121.3 32 64 89.3 64 160v24C64 188.4 67.58 192 72 192zM448 224c-35.35 0-64 28.65-64 64H128c0-35.35-28.65-64-64-64S0 252.7 0 288v160c0 17.67 14.33 32 32 32h64c17.67 0 32-14.33 32-32v-16h256V448c0 17.67 14.33 32 32 32h64c17.67 0 32-14.33 32-32V288C512 252.7 483.3 224 448 224zM112 448c0 8.824-7.176 16-16 16H32c-8.824 0-16-7.176-16-16V288c0-26.47 21.53-48 48-48S112 261.5 112 288V448zM384 416H128V304h256V416zM496 448c0 8.824-7.176 16-16 16h-64c-8.824 0-16-7.176-16-16V288c0-26.47 21.53-48 48-48s48 21.53 48 48V448z"/></svg>
